X:199
M:4/4
L:1/4
K:D
A2 A A | B2 A2 | d3/2 e/ d c | B2 A2 | B2 d2 | A2 F2 | G2 F2 | (E2 G2) | A4 | A2 A A | B2 A2 | d3/2 e/ d c | B2 A2 | B2 d2 | A2 F2 | G2 F2 | (E2 G2) | A4 | A2 A A | (B3/2 A/ ^G2) | A4 | A2 A2 | B2 c2 | d2 A A | B2 A2 | c2 d2 | e2 e2 | (d3/2 c/) B2 | A2 (A3/2 G/) | E4 | F2 ^G2 | A4 | F2 ^G2 | A4 | E2 G2 | F2 E2 | F2 E2 | D4 | !sintro!A2 A A | (B3/2 A/ ^G2) | A4 !eintro!|]
